; G-Code generated by Simplify3D(R) Version 4.1.0
; Jan 18, 2021 at 12:42:13 PM
; Settings Summary
;   processName,Process1
;   applyToModels,Aufrollerabdeckung - Kopie
;   profileName,pa12cf15 (modified)
;   profileVersion,2020-04-24 21:50:21
;   baseProfile,Default
;   printMaterial,Carbon
;   printQuality,Medium
;   printExtruders,All Extruders
;   extruderName,Main Extruder
;   extruderToolheadNumber,0
;   extruderDiameter,0.4
;   extruderAutoWidth,0
;   extruderWidth,0.4
;   extrusionMultiplier,0.96
;   extruderUseRetract,1
;   extruderRetractionDistance,1.65
;   extruderExtraRestartDistance,0
;   extruderRetractionZLift,0
;   extruderRetractionSpeed,2700
;   extruderUseCoasting,1
;   extruderCoastingDistance,0.4
;   extruderUseWipe,0
;   extruderWipeDistance,0.5
;   primaryExtruder,0
;   layerHeight,0.2
;   topSolidLayers,6
;   bottomSolidLayers,6
;   perimeterOutlines,3
;   printPerimetersInsideOut,1
;   startPointOption,2
;   startPointOriginX,0
;   startPointOriginY,610
;   sequentialIslands,0
;   spiralVaseMode,0
;   firstLayerHeightPercentage,100
;   firstLayerWidthPercentage,100
;   firstLayerUnderspeed,0.65
;   useRaft,1
;   raftExtruder,0
;   raftTopLayers,3
;   raftBaseLayers,1
;   raftOffset,10
;   raftSeparationDistance,0.26
;   raftTopInfill,100
;   aboveRaftSpeedMultiplier,1
;   useSkirt,1
;   skirtExtruder,0
;   skirtLayers,1
;   skirtOutlines,1
;   skirtOffset,5
;   usePrimePillar,0
;   primePillarExtruder,999
;   primePillarWidth,12
;   primePillarLocation,1
;   primePillarSpeedMultiplier,0.5
;   useOozeShield,0
;   oozeShieldExtruder,999
;   oozeShieldOffset,10
;   oozeShieldOutlines,2
;   oozeShieldSidewallShape,1
;   oozeShieldSidewallAngle,30
;   oozeShieldSpeedMultiplier,1
;   infillExtruder,0
;   internalInfillPattern,Full Honeycomb
;   externalInfillPattern,Rectilinear
;   infillPercentage,7
;   outlineOverlapPercentage,15
;   infillExtrusionWidthPercentage,105
;   minInfillLength,5
;   infillLayerInterval,1
;   internalInfillAngles,0,120,-120
;   overlapInternalInfillAngles,0
;   externalInfillAngles,45,-45
;   generateSupport,0
;   supportExtruder,0
;   supportInfillPercentage,45
;   supportExtraInflation,0
;   supportBaseLayers,2
;   denseSupportExtruder,0
;   denseSupportLayers,3
;   denseSupportInfillPercentage,100
;   supportLayerInterval,1
;   supportHorizontalPartOffset,0.62
;   supportUpperSeparationLayers,2
;   supportLowerSeparationLayers,1
;   supportType,0
;   supportGridSpacing,1.3
;   maxOverhangAngle,45
;   supportAngles,0
;   temperatureName,Extruder 1
;   temperatureNumber,0
;   temperatureSetpointCount,2
;   temperatureSetpointLayers,1,5
;   temperatureSetpointTemperatures,265,260
;   temperatureStabilizeAtStartup,1
;   temperatureHeatedBed,0
;   fanLayers,1
;   fanSpeeds,0
;   blipFanToFullPower,0
;   adjustSpeedForCooling,1
;   minSpeedLayerTime,7
;   minCoolingSpeedSlowdown,30
;   increaseFanForCooling,0
;   minFanLayerTime,45
;   maxCoolingFanSpeed,100
;   increaseFanForBridging,0
;   bridgingFanSpeed,100
;   use5D,1
;   relativeEdistances,0
;   allowEaxisZeroing,1
;   independentExtruderAxes,0
;   includeM10123,0
;   stickySupport,1
;   applyToolheadOffsets,1
;   gcodeXoffset,0
;   gcodeYoffset,0
;   gcodeZoffset,0
;   overrideMachineDefinition,1
;   machineTypeOverride,0
;   strokeXoverride,250
;   strokeYoverride,250
;   strokeZoverride,210
;   originOffsetXoverride,0
;   originOffsetYoverride,0
;   originOffsetZoverride,0
;   homeXdirOverride,-1
;   homeYdirOverride,-1
;   homeZdirOverride,-1
;   flipXoverride,1
;   flipYoverride,-1
;   flipZoverride,1
;   toolheadOffsets,0,0|-1.2,-37.6|0,0|0,0|0,0|0,0
;   overrideFirmwareConfiguration,0
;   firmwareTypeOverride,RepRap (Marlin/Repetier/Sprinter)
;   GPXconfigOverride,r2
;   baudRateOverride,115200
;   overridePrinterModels,0
;   printerModelsOverride
;   startingGcode,M500,G92 E0,G28; home all axis,G1 F500 Z10 E2,G1 X50 Z0.2 F990,G92 E0,
;   layerChangeGcode,
;   retractionGcode,
;   toolChangeGcode,
;   endingGcode,M104 S0 T0 ; turn off extruder 1,M104 S0 T1 ; turn off extruder 2,G91 ;use relative coordinates,G0 Z2.0; lift nozzle,G90 ;use absolute ,G28 X Y; home x y,M84 ; disable motors,M107 ; cooling fans off,G92 E0 
;   exportFileFormat,gcode
;   celebration,0
;   celebrationSong,Star Wars
;   postProcessing,
;   defaultSpeed,2400
;   outlineUnderspeed,0.7
;   solidInfillUnderspeed,0.8
;   supportUnderspeed,1
;   rapidXYspeed,4800
;   rapidZspeed,3000
;   minBridgingArea,100
;   bridgingExtraInflation,2
;   bridgingExtrusionMultiplier,1
;   bridgingSpeedMultiplier,0.75
;   useFixedBridgingAngle,0
;   fixedBridgingAngle,0
;   applyBridgingToPerimeters,0
;   filamentDiameters,1.75|1.75|1.75|1.75|1.75|1.75
;   filamentPricesPerKg,15|46|46|46|46|46
;   filamentDensities,1.07|1.25|1.25|1.25|1.25|1.25
;   useMinPrintHeight,0
;   minPrintHeight,0
;   useMaxPrintHeight,0
;   maxPrintHeight,0
;   useDiaphragm,0
;   diaphragmLayerInterval,20
;   robustSlicing,1
;   mergeAllIntoSolid,0
;   onlyRetractWhenCrossingOutline,1
;   retractBetweenLayers,1
;   useRetractionMinTravel,1
;   retractionMinTravel,3
;   retractWhileWiping,1
;   onlyWipeOutlines,1
;   avoidCrossingOutline,1
;   maxMovementDetourFactor,100
;   toolChangeRetractionDistance,10
;   toolChangeExtraRestartDistance,0
;   toolChangeRetractionSpeed,3600
;   externalThinWallType,1
;   internalThinWallType,1
;   thinWallAllowedOverlapPercentage,30
;   singleExtrusionMinLength,1
;   singleExtrusionMinPrintingWidthPercentage,20
;   singleExtrusionMaxPrintingWidthPercentage,200
;   singleExtrusionEndpointExtension,0
;   horizontalSizeCompensation,0
G90
M82
M106 S0
M104 S265 T0
M109 S265 T0
M500
G92 E0
G28; home all axis
G1 F500 Z10 E2
G1 X50 Z0.2 F990
G92 E0
; process Process1
; layer 1, Z = 0.500
T0
G92 E0.0000
G1 E-1.6500 F2700
; feature skirt
; tool H0.500 W0.400
G1 Z0.500 F3000
G1 X111.763 Y109.816 F4800
G1 E0.0000 F2700
G92 E0.0000
G1 X114.051 Y108.600 E0.2068 F1560
G1 X135.949 Y108.600 E1.9549
G1 X138.237 Y109.816 E2.1617
G1 X145.635 Y120.769 E3.2168
G1 X145.909 Y123.346 E3.4236
G1 X142.693 Y131.333 E4.1109
G1 X142.373 Y131.907 E4.1634
G1 X140.479 Y134.478 E4.4183
G1 X140.026 Y134.953 E4.4707
G1 X137.622 Y136.911 E4.7181
G1 X137.168 Y137.208 E4.7615
G1 X134.825 Y138.413 E4.9718
G1 X134.319 Y138.609 E5.0151
G1 X131.592 Y139.354 E5.2407
G1 X131.253 Y139.422 E5.2684
G1 X129.586 Y139.646 E5.4026
G1 X129.241 Y139.669 E5.4303
G1 X120.759 Y139.669 E6.1073
G1 X120.414 Y139.646 E6.1349
G1 X118.747 Y139.422 E6.2691
G1 X118.408 Y139.354 E6.2968
G1 X115.681 Y138.609 E6.5224
G1 X115.175 Y138.413 E6.5657
G1 X112.833 Y137.208 E6.7760
G1 X112.379 Y136.911 E6.8193
G1 X109.975 Y134.954 E7.0667
G1 X109.522 Y134.478 E7.1192
G1 X107.627 Y131.907 E7.3741
G1 X107.307 Y131.333 E7.4266
G1 X104.091 Y123.346 E8.1139
G1 X104.365 Y120.769 E8.3207
G1 X111.763 Y109.816 E9.3758
G92 E0.0000
G1 E-1.6500 F2700
; feature raft
; tool H0.500 W0.800
G1 X115.559 Y114.200 F4800
G1 E0.0000 F2700
G92 E0.0000
G1 X134.441 Y114.200 E3.0145 F390
G1 X140.151 Y122.654 E4.6431
G1 X137.640 Y128.890 E5.7164
G1 X136.195 Y130.850 E6.1051
G1 X134.329 Y132.371 E6.4895
G1 X132.542 Y133.289 E6.8101
G1 X130.310 Y133.899 E7.1795
G1 X129.041 Y134.069 E7.3840
G1 X120.959 Y134.069 E8.6742
G1 X119.690 Y133.899 E8.8787
G1 X117.458 Y133.289 E9.2481
G1 X115.672 Y132.371 E9.5687
G1 X113.805 Y130.851 E9.9531
G1 X112.360 Y128.890 E10.3419
G1 X109.849 Y122.654 E11.4152
G1 X115.335 Y114.531 E12.9799
G1 X115.559 Y114.200 F390
G1 X115.260 Y115.857 F4800
G92 E0.0000
G1 X134.740 Y115.857 E3.1098 F390
G1 X136.283 Y118.143 E3.5502
G1 X113.717 Y118.143 E7.1529
G1 X112.173 Y120.429 E7.5933
G1 X137.827 Y120.429 E11.6890
G1 X139.371 Y122.714 E12.1293
G1 X110.629 Y122.714 E16.7179
G1 X110.615 Y122.735 E16.7219
G1 X111.527 Y125.000 E17.1117
G1 X138.473 Y125.000 E21.4136
G1 X137.553 Y127.286 E21.8070
G1 X112.447 Y127.286 E25.8150
G1 X112.959 Y128.556 E26.0337
G1 X113.707 Y129.571 E26.2350
G1 X136.293 Y129.571 E29.8409
G1 X135.699 Y130.378 E30.0007
G1 X133.954 Y131.799 E30.3600
G1 X133.840 Y131.857 E30.3804
G1 X116.560 Y131.857 E33.1393
G1 X116.160 Y131.857 F390
G92 E0.0000
G1 E-1.6500 F2700
; layer 2, Z = 0.722
; tool H0.222 W0.400
G1 Z0.722 F3000
G1 X115.073 Y114.562 F4800
G1 E0.0000 F2700
G92 E0.0000
G1 X115.635 Y114.000 E0.0282 F1800
G1 X116.201 Y114.000 E0.0483
G1 X113.896 Y116.305 E0.1639
G1 X112.719 Y118.048 E0.2385
G1 X116.767 Y114.000 E0.4416
G1 X117.332 Y114.000 E0.4617
G1 X111.542 Y119.791 E0.7522
G1 X110.365 Y121.534 E0.8269
G1 X117.898 Y114.000 E1.2048
G1 X118.464 Y114.000 E1.2249
G1 X109.684 Y122.779 E1.6654
G1 X109.847 Y123.183 E1.6808
G1 X119.029 Y114.000 E2.1415
G1 X119.595 Y114.000 E2.1616
G1 X110.009 Y123.586 E2.6426
G1 X110.172 Y123.989 E2.6580
G1 X120.161 Y114.000 E3.1592
G1 X120.727 Y114.000 E3.1792
G1 X110.334 Y124.393 E3.7007
G1 X110.496 Y124.796 E3.7161
G1 X121.292 Y114.000 E4.2578
G1 X121.858 Y114.000 E4.2778
G1 X110.659 Y125.199 E4.8397
G1 X110.821 Y125.603 E4.8551
G1 X122.424 Y114.000 E5.4373
G1 X122.989 Y114.000 E5.4573
G1 X110.983 Y126.006 E6.0597
G1 X111.146 Y126.409 E6.0751
G1 X123.555 Y114.000 E6.6977
G1 X124.121 Y114.000 E6.7178
G1 X111.308 Y126.813 E7.3606
G1 X111.470 Y127.216 E7.3761
G1 X124.686 Y114.000 E8.0391
G1 X125.252 Y114.000 E8.0592
G1 X111.633 Y127.619 E8.7425
G1 X111.795 Y128.022 E8.7580
G1 X125.818 Y114.000 E9.4615
G1 X126.383 Y114.000 E9.4816
G1 X111.958 Y128.426 E10.2053
G1 X112.120 Y128.829 E10.2208
G1 X126.949 Y114.000 E10.9648
G1 X127.515 Y114.000 E10.9849
G1 X112.329 Y129.185 E11.7468
G1 X112.569 Y129.511 E11.7611
G1 X128.080 Y114.000 E12.5393
G1 X128.646 Y114.000 E12.5594
G1 X112.809 Y129.837 E13.3540
G1 X113.049 Y130.163 E13.3683
G1 X129.212 Y114.000 E14.1793
G1 X129.777 Y114.000 E14.1993
G1 X113.289 Y130.488 E15.0266
G1 X113.529 Y130.814 E15.0409
G1 X130.343 Y114.000 E15.8845
G1 X130.909 Y114.000 E15.9046
G1 X113.802 Y131.107 E16.7629
G1 X114.114 Y131.360 E16.7772
G1 X131.475 Y114.000 E17.6482
G1 X132.040 Y114.000 E17.6682
G1 X114.426 Y131.614 E18.5520
G1 X114.738 Y131.868 E18.5663
G1 X132.606 Y114.000 E19.4628
G1 X133.172 Y114.000 E19.4828
G1 X115.049 Y132.122 E20.3921
G1 X115.361 Y132.376 E20.4063
G1 X133.737 Y114.000 E21.3283
G1 X134.303 Y114.000 E21.3484
G1 X115.695 Y132.608 E22.2820
G1 X116.069 Y132.800 E22.2969
G1 X134.677 Y114.192 E23.2305
G1 X134.905 Y114.530 E23.2450
G1 X116.442 Y132.992 E24.1713
G1 X116.816 Y133.184 E24.1862
G1 X135.133 Y114.867 E25.1052
G1 X135.361 Y115.205 E25.1197
G1 X117.189 Y133.376 E26.0314
G1 X117.385 Y133.477 E26.0392
G1 X117.597 Y133.535 E26.0470
G1 X135.589 Y115.542 E26.9497
G1 X135.817 Y115.880 E26.9641
G1 X118.041 Y133.656 E27.8560
G1 X118.486 Y133.777 E27.8723
G1 X136.045 Y116.218 E28.7533
G1 X136.273 Y116.555 E28.7678
G1 X118.930 Y133.899 E29.6380
G1 X119.374 Y134.020 E29.6543
G1 X136.501 Y116.893 E30.5136
G1 X136.729 Y117.231 E30.5281
G1 X119.839 Y134.121 E31.3755
G1 X120.338 Y134.187 E31.3933
G1 X136.957 Y117.568 E32.2271
G1 X137.185 Y117.906 E32.2416
G1 X120.837 Y134.254 E33.0618
G1 X120.946 Y134.269 E33.0657
G1 X121.388 Y134.269 E33.0814
G1 X137.413 Y118.244 E33.8855
G1 X137.641 Y118.581 E33.8999
G1 X121.954 Y134.269 E34.6870
G1 X122.519 Y134.269 E34.7071
G1 X137.869 Y118.919 E35.4772
G1 X138.097 Y119.256 E35.4917
G1 X123.085 Y134.269 E36.2449
G1 X123.651 Y134.269 E36.2650
G1 X138.325 Y119.594 E37.0012
G1 X138.554 Y119.932 E37.0157
G1 X124.216 Y134.269 E37.7350
G1 X124.782 Y134.269 E37.7551
G1 X138.782 Y120.269 E38.4575
G1 X139.010 Y120.607 E38.4719
G1 X125.348 Y134.269 E39.1574
G1 X125.913 Y134.269 E39.1775
G1 X139.238 Y120.945 E39.8460
G1 X139.466 Y121.282 E39.8604
G1 X126.479 Y134.269 E40.5120
G1 X127.045 Y134.269 E40.5321
G1 X139.694 Y121.620 E41.1667
G1 X139.922 Y121.958 E41.1812
G1 X127.611 Y134.269 E41.7988
G1 X128.176 Y134.269 E41.8189
G1 X140.150 Y122.295 E42.4197
G1 X140.376 Y122.630 E42.4340
G1 X140.372 Y122.638 E42.4343
G1 X128.742 Y134.269 E43.0178
G1 X129.054 Y134.269 E43.0289
G1 X129.347 Y134.230 E43.0394
G1 X139.991 Y123.585 E43.5735
G1 X139.610 Y124.532 E43.6097
G1 X130.000 Y134.142 E44.0918
G1 X130.350 Y134.095 E44.1043
G1 X130.711 Y133.997 E44.1176
G1 X139.229 Y125.479 E44.5450
G1 X138.847 Y126.426 E44.5812
G1 X131.489 Y133.784 E44.9504
G1 X132.268 Y133.572 E44.9790
G1 X138.466 Y127.373 E45.2900
G1 X138.085 Y128.320 E45.3262
G1 X133.260 Y133.145 E45.5683
G1 X134.424 Y132.546 E45.6148
G1 X137.067 Y129.903 E45.7474
G1 X137.350 Y129.621 F1800
G92 E0.0000
G1 E-1.6500 F2700
; layer 3, Z = 0.944
G1 Z0.944 F3000
G1 X134.365 Y114.000 F4800
G1 E0.0000 F2700
G92 E0.0000
G1 X134.927 Y114.562 E0.0282 F1800
G1 X136.104 Y116.305 E0.1028
G1 X133.799 Y114.000 E0.2185
G1 X133.233 Y114.000 E0.2385
G1 X137.281 Y118.048 E0.4416
G1 X138.458 Y119.790 E0.5162
G1 X132.668 Y114.000 E0.8068
G1 X132.102 Y114.000 E0.8268
G1 X139.635 Y121.533 E1.2048
G1 X140.376 Y122.630 E1.2517
G1 X140.316 Y122.779 E1.2575
G1 X131.536 Y114.000 E1.6979
G1 X130.971 Y114.000 E1.7180
G1 X140.153 Y123.183 E2.1787
G1 X139.991 Y123.586 E2.1941
G1 X130.405 Y114.000 E2.6751
G1 X129.839 Y114.000 E2.6952
G1 X139.828 Y123.989 E3.1964
G1 X139.666 Y124.393 E3.2118
G1 X129.274 Y114.000 E3.7332
G1 X128.708 Y114.000 E3.7533
G1 X139.504 Y124.796 E4.2949
G1 X139.341 Y125.199 E4.3104
G1 X128.142 Y114.000 E4.8723
G1 X127.576 Y114.000 E4.8923
G1 X139.179 Y125.603 E5.4745
G1 X139.017 Y126.006 E5.4899
G1 X127.011 Y114.000 E6.0923
G1 X126.445 Y114.000 E6.1123
G1 X138.854 Y126.409 E6.7349
G1 X138.692 Y126.812 E6.7503
G1 X125.879 Y114.000 E7.3932
G1 X125.314 Y114.000 E7.4133
G1 X138.530 Y127.216 E8.0763
G1 X138.367 Y127.619 E8.0918
G1 X124.748 Y114.000 E8.7751
G1 X124.182 Y114.000 E8.7951
G1 X138.205 Y128.022 E9.4987
G1 X138.042 Y128.426 E9.5141
G1 X123.617 Y114.000 E10.2379
G1 X123.051 Y114.000 E10.2579
G1 X137.880 Y128.829 E11.0020
G1 X137.816 Y128.988 E11.0080
G1 X137.671 Y129.185 E11.0167
G1 X122.485 Y114.000 E11.7786
G1 X121.920 Y114.000 E11.7987
G1 X137.431 Y129.511 E12.5769
G1 X137.191 Y129.837 E12.5913
G1 X121.354 Y114.000 E13.3859
G1 X120.788 Y114.000 E13.4059
G1 X136.951 Y130.162 E14.2168
G1 X136.711 Y130.488 E14.2312
G1 X120.223 Y114.000 E15.0585
G1 X119.657 Y114.000 E15.0785
G1 X136.471 Y130.814 E15.9221
G1 X136.341 Y130.989 E15.9299
G1 X136.198 Y131.106 E15.9364
G1 X119.091 Y114.000 E16.7947
G1 X118.525 Y114.000 E16.8148
G1 X135.886 Y131.360 E17.6858
G1 X135.574 Y131.614 E17.7001
G1 X117.960 Y114.000 E18.5838
G1 X117.394 Y114.000 E18.6039
G1 X135.262 Y131.868 E19.5004
G1 X134.951 Y132.122 E19.5146
G1 X116.828 Y114.000 E20.4239
G1 X116.263 Y114.000 E20.4440
G1 X134.639 Y132.376 E21.3659
G1 X134.439 Y132.539 E21.3751
G1 X134.305 Y132.608 E21.3804
G1 X115.697 Y114.000 E22.3140
G1 X115.453 Y114.000 E22.3227
G1 X115.323 Y114.192 E22.3309
G1 X133.931 Y132.800 E23.2645
G1 X133.558 Y132.992 E23.2794
G1 X115.095 Y114.530 E24.2057
G1 X114.867 Y114.867 E24.2202
G1 X133.184 Y133.184 E25.1392
G1 X132.811 Y133.376 E25.1541
G1 X114.639 Y115.205 E26.0658
G1 X114.411 Y115.542 E26.0803
G1 X132.403 Y133.535 E26.9830
G1 X131.959 Y133.656 E26.9993
G1 X114.183 Y115.880 E27.8912
G1 X113.955 Y116.218 E27.9057
G1 X131.515 Y133.777 E28.7867
G1 X131.070 Y133.899 E28.8030
G1 X113.727 Y116.555 E29.6732
G1 X113.499 Y116.893 E29.6876
G1 X130.626 Y134.020 E30.5469
G1 X130.350 Y134.095 E30.5571
G1 X130.161 Y134.121 E30.5638
G1 X113.271 Y117.231 E31.4112
G1 X113.043 Y117.568 E31.4257
G1 X129.662 Y134.187 E32.2595
G1 X129.163 Y134.254 E32.2774
G1 X112.815 Y117.906 E33.0976
G1 X112.587 Y118.244 E33.1121
G1 X128.612 Y134.269 E33.9161
